src/lib/packages/icons/src/assets/line/star-magic.svg

<svg width="24" height="24" viewBox="0 0 24 24" fill="none" xmlns="http://www.w3.org/2000/svg">
<path d="M12.368 20.75C11.796 20.75 11.259 20.476 10.921 19.998L8.5019 16.571C8.4619 16.514 8.407 16.483 8.326 16.482L3.98701 16.547C3.97801 16.547 3.96791 16.547 3.95991 16.547C3.31391 16.547 2.73292 16.192 2.43892 15.616C2.13992 15.031 2.19997 14.34 2.59297 13.812L5.19893 10.324C5.24093 10.268 5.25293 10.194 5.22993 10.127L3.88691 6.145C3.66891 5.499 3.83397 4.79796 4.31697 4.31596C4.79797 3.83496 5.49595 3.669 6.14595 3.887L10.1269 5.22996C10.1949 5.25196 10.268 5.23998 10.322 5.19798L13.8089 2.59196C14.3339 2.19796 15.027 2.13897 15.612 2.43797C16.197 2.73597 16.554 3.329 16.545 3.986L16.4799 8.32701C16.4789 8.39701 16.5119 8.46199 16.5689 8.50199L19.998 10.923C20.554 11.315 20.834 11.977 20.727 12.65C20.622 13.324 20.151 13.87 19.499 14.074L15.473 15.334C15.407 15.355 15.353 15.408 15.332 15.476L14.0729 19.498C13.8689 20.15 13.3229 20.621 12.6479 20.727C12.5559 20.743 12.461 20.75 12.368 20.75ZM8.32893 14.982C8.88593 14.982 9.406 15.251 9.727 15.706L12.145 19.133C12.232 19.256 12.353 19.257 12.416 19.247C12.48 19.237 12.5959 19.198 12.6419 19.052L13.901 15.029C14.07 14.492 14.49 14.072 15.026 13.904L19.052 12.644C19.197 12.599 19.2359 12.484 19.2449 12.419C19.2549 12.356 19.2539 12.236 19.1319 12.15L15.703 9.72898C15.241 9.40298 14.971 8.87101 14.979 8.30601L15.0439 3.96598C15.0459 3.85798 14.982 3.80298 14.93 3.77598C14.877 3.74898 14.795 3.73 14.707 3.796L11.2199 6.40196C10.7679 6.73896 10.1799 6.83299 9.6479 6.65299L5.66597 5.30998C5.51997 5.26098 5.4229 5.33197 5.3769 5.37797C5.3299 5.42397 5.25991 5.52397 5.30891 5.66697L6.65193 9.65C6.83093 10.184 6.73695 10.772 6.40095 11.222L3.7939 14.71C3.7289 14.798 3.747 14.88 3.774 14.934C3.801 14.987 3.89596 15.046 3.96296 15.048L8.30293 14.983C8.31193 14.982 8.32093 14.982 8.32893 14.982ZM21.53 21.53C21.823 21.237 21.823 20.762 21.53 20.469L18.53 17.469C18.237 17.176 17.7619 17.176 17.4689 17.469C17.1759 17.762 17.1759 18.237 17.4689 18.53L20.4689 21.53C20.6149 21.676 20.807 21.75 20.999 21.75C21.191 21.75 21.384 21.677 21.53 21.53Z" fill="currentColor"/>
</svg>

<svg xmlns="http://www.w3.org/2000/svg" width="24" height="24" fill="none"><path fill="currentColor" d="M12.368 20.75a1.766 1.766 0 0 1-1.447-.752l-2.42-3.427a.202.202 0 0 0-.175-.089l-4.339.065H3.96a1.697 1.697 0 0 1-1.521-.931 1.704 1.704 0 0 1 .154-1.804l2.606-3.488a.213.213 0 0 0 .03-.197L3.888 6.145a1.77 1.77 0 0 1 .43-1.829 1.77 1.77 0 0 1 1.829-.429l3.98 1.343c.069.022.142.01.196-.032l3.487-2.606a1.7 1.7 0 0 1 1.803-.154 1.7 1.7 0 0 1 .933 1.548l-.065 4.341a.209.209 0 0 0 .089.175l3.429 2.421c.556.392.836 1.054.729 1.727a1.77 1.77 0 0 1-1.228 1.424l-4.026 1.26a.217.217 0 0 0-.141.142l-1.26 4.022a1.772 1.772 0 0 1-1.424 1.229 1.643 1.643 0 0 1-.28.023Zm-4.04-5.768c.558 0 1.078.269 1.399.724l2.418 3.427a.268.268 0 0 0 .271.114.273.273 0 0 0 .226-.195l1.259-4.023a1.719 1.719 0 0 1 1.125-1.125l4.026-1.26a.266.266 0 0 0 .193-.225.265.265 0 0 0-.113-.269l-3.429-2.421a1.71 1.71 0 0 1-.724-1.423l.065-4.34a.2.2 0 0 0-.114-.19.2.2 0 0 0-.223.02L11.22 6.402a1.713 1.713 0 0 1-1.572.251L5.666 5.31a.269.269 0 0 0-.29.068.269.269 0 0 0-.067.289L6.652 9.65a1.717 1.717 0 0 1-.251 1.572L3.794 14.71a.204.204 0 0 0-.02.224.264.264 0 0 0 .189.114l4.34-.065.026-.001ZM21.53 21.53a.75.75 0 0 0 0-1.061l-3-3a.75.75 0 0 0-1.061 1.061l3 3a.748.748 0 0 0 1.061 0Z"/></svg>
